X:28
T: Là dhomh 's mi a' dìreadh a' bhalaich
O: Scotland
T: As I ascended the pass
C: based on the arr. by Mànran, from the Patrick McDonald Collection
R: jig
M: 6/8
L: 1/8
K: Gmaj
   "Em" B3 B2d | "C" e2e ged | "Bm" B3 B2A | "D" Bd2 "Em" e3 |
|: "Em" E3 G2A | "G" B3 e2d | "G"B2A GB2 | "Em" E3 G3 |
   "C" e3 ged | e3G3 | "G"d2B BAG | "Bm"d3 B3 ||
   "Em" B3 B2d | "C"e2e ged | "Bm"B3 B2A | "D"Bd2 "Em"e3 :|



